.icons/oomox-ad/48x48/apps/reddit.svg

<svg xmlns="http://www.w3.org/2000/svg" width="48" height="48" version="1.1">
 <circle style="opacity:0.2" cx="24" cy="25" r="20"/>
 <circle style="fill:#ff5836" cx="24" cy="24" r="20"/>
 <path style="opacity:0.2;fill:#ffffff" d="M 24,3.9996436 A 19.999999,19.99874 0 0 0 4,23.998384 19.999999,19.99874 0 0 0 4.0214845,24.580379 19.999999,19.99874 0 0 1 24,4.9995806 19.999999,19.99874 0 0 1 43.978516,24.416327 19.999999,19.99874 0 0 0 44,23.998384 19.999999,19.99874 0 0 0 24,3.9996436 Z"/>
 <path style="opacity:0.2" d="m 24.9433,12.997137 a 1.0000371,1.0000371 0 0 0 -0.937441,0.878836 l -0.890569,7.15582 a 10.999307,7.9994957 0 0 0 -6.702703,2.18734 2.9998111,2.9998111 0 0 0 -2.411957,-1.220635 2.9998111,2.9998111 0 0 0 -2.999811,2.999811 2.9998111,2.9998111 0 0 0 2.122913,2.865079 10.999307,7.9994957 0 0 0 -0.123038,1.134694 10.999307,7.9994957 0 0 0 10.999307,7.999471 10.999307,7.9994957 0 0 0 10.999307,-7.999471 10.999307,7.9994957 0 0 0 -0.123038,-1.132766 2.9998111,2.9998111 0 0 0 2.122913,-2.867007 2.9998111,2.9998111 0 0 0 -2.999811,-2.999811 2.9998111,2.9998111 0 0 0 -2.408051,1.216742 10.999307,7.9994957 0 0 0 -6.464437,-2.163946 l 0.738234,-5.921504 4.279028,0.6113 a 1.9998739,1.9998739 0 0 0 1.855352,1.257748 1.9998739,1.9998739 0 0 0 1.999874,-1.999887 1.9998739,1.9998739 0 0 0 -1.999874,-1.999887 1.9998739,1.9998739 0 0 0 -1.570213,0.765609 L 25.142506,13.012745 A 1.0000371,1.0000371 0 0 0 24.9433,12.997628 Z m -4.943048,12.001172 a 1.9998739,1.9998739 0 0 1 1.999874,1.999887 1.9998739,1.9998739 0 0 1 -1.999874,1.999886 1.9998739,1.9998739 0 0 1 -1.999874,-1.999886 1.9998739,1.9998739 0 0 1 1.999874,-1.999887 z m 7.999496,0 a 1.9998739,1.9998739 0 0 1 1.999874,1.999887 1.9998739,1.9998739 0 0 1 -1.999874,1.999886 1.9998739,1.9998739 0 0 1 -1.999874,-1.999886 1.9998739,1.9998739 0 0 1 1.999874,-1.999887 z m 0.978455,5.970333 a 1.0035265,1.0035265 0 0 1 0.91791,1.47842 c 1e-6,0 -0.423047,0.767007 -1.343666,1.380763 -0.920618,0.613757 -2.387869,1.165949 -4.5544,1.165949 -2.166531,0 -3.633781,-0.552192 -4.554401,-1.165949 -0.920619,-0.613756 -1.335853,-1.380763 -1.335853,-1.380763 a 1.0000371,1.0000371 0 0 1 0.804637,-1.460847 1.0000371,1.0000371 0 0 1 0.101557,-0.0038 1.0000371,1.0000371 0 0 1 0.880803,0.564399 c 0,0 0.07692,0.234694 0.656209,0.621089 0.579286,0.386167 1.613831,0.8339 3.447049,0.8339 1.833216,0 2.867765,-0.447733 3.447047,-0.8339 0.579287,-0.38613 0.658163,-0.621089 0.658163,-0.621089 a 1.0035265,1.0035265 0 0 1 0.874945,-0.57808 z"/>
 <path style="fill:#ffffff" d="m 24.9433,11.997187 a 1.0000371,1.0000371 0 0 0 -0.937441,0.878851 l -0.890569,7.155799 a 10.999307,7.9994955 0 0 0 -6.702703,2.187362 2.9998111,2.9998111 0 0 0 -2.411957,-1.220626 2.9998111,2.9998111 0 0 0 -2.999811,2.999811 2.9998111,2.9998111 0 0 0 2.122913,2.865054 10.999307,7.9994955 0 0 0 -0.123039,1.134694 A 10.999307,7.9994955 0 0 0 24,35.997629 a 10.999307,7.9994955 0 0 0 10.999307,-7.999497 10.999307,7.9994955 0 0 0 -0.123039,-1.13274 2.9998111,2.9998111 0 0 0 2.122914,-2.867008 2.9998111,2.9998111 0 0 0 -2.999812,-2.999811 2.9998111,2.9998111 0 0 0 -2.408051,1.21672 10.999307,7.9994955 0 0 0 -6.464437,-2.163926 l 0.738235,-5.921502 4.279027,0.61129 a 1.999874,1.999874 0 0 0 1.855352,1.257733 1.999874,1.999874 0 0 0 1.999874,-1.999874 1.999874,1.999874 0 0 0 -1.999874,-1.999874 1.999874,1.999874 0 0 0 -1.570213,0.765577 L 25.142506,12.012811 A 1.0000371,1.0000371 0 0 0 24.9433,11.997182 Z m -4.943048,12.001197 a 1.999874,1.999874 0 0 1 1.999874,1.999874 1.999874,1.999874 0 0 1 -1.999874,1.999874 1.999874,1.999874 0 0 1 -1.999874,-1.999874 1.999874,1.999874 0 0 1 1.999874,-1.999874 z m 7.999496,0 a 1.999874,1.999874 0 0 1 1.999874,1.999874 1.999874,1.999874 0 0 1 -1.999874,1.999874 1.999874,1.999874 0 0 1 -1.999874,-1.999874 1.999874,1.999874 0 0 1 1.999874,-1.999874 z m 0.978455,5.970327 a 1.0035265,1.0035265 0 0 1 0.91791,1.478423 c 1e-6,0 -0.423047,0.767016 -1.343666,1.380772 -0.920619,0.613757 -2.387869,1.165943 -4.5544,1.165943 -2.166531,0 -3.633781,-0.552186 -4.554401,-1.165943 -0.920619,-0.613756 -1.335853,-1.380772 -1.335853,-1.380772 a 1.0000371,1.0000371 0 0 1 0.804637,-1.460846 1.0000371,1.0000371 0 0 1 0.101556,-0.0039 1.0000371,1.0000371 0 0 1 0.880804,0.564418 c 0,0 0.07692,0.234849 0.656208,0.621055 0.579287,0.386167 1.613832,0.833931 3.447049,0.833931 1.833217,0 2.867766,-0.447764 3.447048,-0.833931 0.579287,-0.38613 0.658163,-0.621055 0.658163,-0.621055 a 1.0035265,1.0035265 0 0 1 0.874945,-0.578089 z"/>
</svg>

<svg xmlns="http://www.w3.org/2000/svg" width="48" height="48" version="1.1" viewBox="0 0 12.7 12.7">
 <g transform="translate(0,-284.29999)">
  <circle style="opacity:0.2" cx="6.35" cy="290.915" r="5.292"/>
  <circle style="fill:#ff5836" cx="6.35" cy="290.65" r="5.292"/>
  <path style="opacity:0.2;fill:#ffffff" transform="matrix(0.26458333,0,0,0.26458333,0,284.29999)" d="M 24 4 A 19.999999 19.999999 0 0 0 4 24 A 19.999999 19.999999 0 0 0 4.0214844 24.582031 A 19.999999 19.999999 0 0 1 24 5 A 19.999999 19.999999 0 0 1 43.978516 24.417969 A 19.999999 19.999999 0 0 0 44 24 A 19.999999 19.999999 0 0 0 24 4 z"/>
  <path style="opacity:0.2" d="m 6.599597,287.73906 a 0.26460981,0.26460981 0 0 0 -0.2480469,0.23254 l -0.2356445,1.89343 a 2.9104166,2.1166665 0 0 0 -1.7735351,0.57877 0.79374999,0.79374999 0 0 0 -0.6382039,-0.32298 0.79374999,0.79374999 0 0 0 -0.79375,0.79375 0.79374999,0.79374999 0 0 0 0.5617229,0.7581 2.9104166,2.1166665 0 0 0 -0.032556,0.30024 2.9104166,2.1166665 0 0 0 2.9104166,2.11666 2.9104166,2.1166665 0 0 0 2.9104167,-2.11666 2.9104166,2.1166665 0 0 0 -0.032556,-0.29973 0.79374999,0.79374999 0 0 0 0.5617228,-0.75861 0.79374999,0.79374999 0 0 0 -0.79375,-0.79375 0.79374999,0.79374999 0 0 0 -0.6371703,0.32195 2.9104166,2.1166665 0 0 0 -1.71049,-0.57258 l 0.1953368,-1.56683 1.1322307,0.16175 a 0.52916663,0.52916663 0 0 0 0.4909262,0.3328 0.52916663,0.52916663 0 0 0 0.5291666,-0.52917 0.52916663,0.52916663 0 0 0 -0.5291666,-0.52917 0.52916663,0.52916663 0 0 0 -0.4154784,0.20258 L 6.652307,287.74319 a 0.26460981,0.26460981 0 0 0 -0.05271,-0.004 z m -1.3079304,3.17551 a 0.52916663,0.52916663 0 0 1 0.5291667,0.52917 0.52916663,0.52916663 0 0 1 -0.5291667,0.52917 0.52916663,0.52916663 0 0 1 -0.5291667,-0.52917 0.52916663,0.52916663 0 0 1 0.5291667,-0.52917 z m 2.1166666,0 a 0.52916663,0.52916663 0 0 1 0.5291667,0.52917 0.52916663,0.52916663 0 0 1 -0.5291667,0.52917 0.52916663,0.52916663 0 0 1 -0.5291666,-0.52917 0.52916663,0.52916663 0 0 1 0.5291666,-0.52917 z m 0.2588991,1.57975 a 0.2655331,0.2655331 0 0 1 0.242879,0.39119 c 3e-7,0 -0.1119381,0.20295 -0.3555339,0.36535 -0.2435957,0.1624 -0.6318302,0.30851 -1.2050942,0.30851 -0.5732642,0 -0.9614985,-0.14611 -1.2050945,-0.30851 -0.2435958,-0.1624 -0.3534667,-0.36535 -0.3534667,-0.36535 a 0.26460981,0.26460981 0 0 1 0.2129068,-0.38654 0.26460981,0.26460981 0 0 1 0.026872,-10e-4 0.26460981,0.26460981 0 0 1 0.2330606,0.14934 c 0,0 0.020354,0.0621 0.1736328,0.16434 0.1532792,0.10218 0.4270197,0.22065 0.9120891,0.22065 0.4850691,0 0.7588107,-0.11847 0.9120888,-0.22065 0.1532793,-0.10217 0.1741498,-0.16434 0.1741498,-0.16434 a 0.2655331,0.2655331 0 0 1 0.2315105,-0.15296 z"/>
  <path style="fill:#ffffff" transform="matrix(0.26458333,0,0,0.26458333,0,284.29999)" d="M 24.943359 11.998047 A 1.0001001 1.0001001 0 0 0 24.005859 12.876953 L 23.115234 20.033203 A 11 7.9999993 0 0 0 16.412109 22.220703 A 3 3 0 0 0 14 21 A 3 3 0 0 0 11 24 A 3 3 0 0 0 13.123047 26.865234 A 11 7.9999993 0 0 0 13 28 A 11 7.9999993 0 0 0 24 36 A 11 7.9999993 0 0 0 35 28 A 11 7.9999993 0 0 0 34.876953 26.867188 A 3 3 0 0 0 37 24 A 3 3 0 0 0 34 21 A 3 3 0 0 0 31.591797 22.216797 A 11 7.9999993 0 0 0 25.126953 20.052734 L 25.865234 14.130859 L 30.144531 14.742188 A 1.9999999 1.9999999 0 0 0 32 16 A 1.9999999 1.9999999 0 0 0 34 14 A 1.9999999 1.9999999 0 0 0 32 12 A 1.9999999 1.9999999 0 0 0 30.429688 12.765625 L 25.142578 12.013672 A 1.0001001 1.0001001 0 0 0 24.943359 11.998047 z M 20 24 A 1.9999999 1.9999999 0 0 1 22 26 A 1.9999999 1.9999999 0 0 1 20 28 A 1.9999999 1.9999999 0 0 1 18 26 A 1.9999999 1.9999999 0 0 1 20 24 z M 28 24 A 1.9999999 1.9999999 0 0 1 30 26 A 1.9999999 1.9999999 0 0 1 28 28 A 1.9999999 1.9999999 0 0 1 26 26 A 1.9999999 1.9999999 0 0 1 28 24 z M 28.978516 29.970703 A 1.0035897 1.0035897 0 0 1 29.896484 31.449219 C 29.896485 31.449219 29.473411 32.216283 28.552734 32.830078 C 27.632057 33.443873 26.164714 33.996094 23.998047 33.996094 C 21.831379 33.996094 20.364037 33.443873 19.443359 32.830078 C 18.522682 32.216283 18.107422 31.449219 18.107422 31.449219 A 1.0001001 1.0001001 0 0 1 18.912109 29.988281 A 1.0001001 1.0001001 0 0 1 19.013672 29.984375 A 1.0001001 1.0001001 0 0 1 19.894531 30.548828 C 19.894531 30.548828 19.971458 30.783692 20.550781 31.169922 C 21.130104 31.556114 22.164714 32.003906 23.998047 32.003906 C 25.831379 32.003906 26.865993 31.556114 27.445312 31.169922 C 28.024635 30.783768 28.103516 30.548828 28.103516 30.548828 A 1.0035897 1.0035897 0 0 1 28.978516 29.970703 z"/>
 </g>
</svg>
